icons/KoraCustom/apps/scalable/org.kde.mcwsremote.svg

<svg width="48" height="48" xmlns="http://www.w3.org/2000/svg">
 <rect x="4" y="4" width="40" height="40" rx="20" fill="#e4e4e4"/>
 <path d="m10.216797 9.5097656c-.2419155.230103-.4769284.4651159-.7070314.7070314l13.7832034 13.783203-13.7832034 13.783203c.230103.241915.4651159.476928.7070314.707031l13.783203-13.783203 13.783203 13.783203c.241915-.230103.476928-.465116.707031-.707031l-13.783203-13.783203 13.783203-13.783203c-.230103-.2419155-.465116-.4769284-.707031-.7070314l-13.783203 13.7832034z" opacity=".2"/>
 <path d="m24 4c-11.079 0-19.998 8.92-19.998 20 0 .16772-.004.33329 0 .5.2642-10.846 9.087-19.5 19.998-19.5s19.734 8.6536 19.998 19.5c.004-.16671 0-.33228 0-.5 0-11.08-8.919-20-19.998-20z" fill="#fff" opacity=".2"/>
 <path d="m4.0117 24.5c-.0041.167-.0117.332-.0117.5 0 11.08 8.92 20 20 20s20-8.92 20-20c0-.168-.008-.333-.012-.5-.264 10.846-9.076 19.5-19.988 19.5s-19.724-8.654-19.988-19.5z" opacity=".2"/>
 <path d="m22 6c-.554 0-1 .3825647-1 .8574219v4.2851561c0 .474857.446.857422 1 .857422s1-.382565 1-.857422v-4.2851561c0-.4748572-.446-.8574219-1-.8574219zm4 0c-.554 0-1 .3825647-1 .8574219v4.2851561c0 .474857.446.857422 1 .857422s1-.382565 1-.857422v-4.2851561c0-.4748572-.446-.8574219-1-.8574219zm-16.5058594 15c-.08249.0031-.1630761.03403-.234375.08984l-1.5078125 1.167968-1.5058593 1.169922c-.3279634.255208-.3279632.891277 0 1.146485l1.5058593 1.169922 1.5078125 1.167968c.3290374.255779.7407034-.063572.7402344-.574214v-.402344l1.259766.976562c.329038.255775.740703-.063574.740234-.574218v-4.675782c-.000068-.372475-.228652-.671666-.505859-.662109-.08249.0031-.163076.03403-.234375.08984l-1.259766.976566v-.404297c-.0000673-.372475-.2286527-.671666-.5058594-.662109zm27.0117184 0c-.277207-.009557-.505791.289634-.505859.662109v4.675782c-.000469.510648.411196.829993.740234.574218l1.259766-.976562v.402344c-.000469.510644.411196.829997.740234.574218l1.507813-1.167968 1.505859-1.169922c.327963-.255208.327963-.891277 0-1.146485l-1.505859-1.169922-1.507813-1.167968c-.071299-.05581-.151885-.086744-.234375-.089844-.277207-.009557-.505791.289638-.505859.662109v.404297l-1.259766-.976562c-.071299-.05581-.151885-.086744-.234375-.089844zm-14.505859 15c-.554 0-1 .382565-1 .857422v4.285156c0 .474857.446.857422 1 .857422h4c.554 0 1-.382565 1-.857422v-4.285156c0-.474857-.446-.857422-1-.857422z" opacity=".6"/>
 <circle cx="24" cy="24" r="10" fill="#0086f2"/>
 <path d="m21.185177 20.000314a1.1581496 1.1539536 0 0 0-1.185176 1.15534v7.690752a1.1581496 1.1539536 0 0 0 1.737051 0.999093l3.342918-1.921561 3.34141-1.924567a1.1581496 1.1539536 0 0 0 0-1.998183l-3.342918-1.923064-3.34141-1.921561a1.1581496 1.1539536 0 0 0-0.322682-0.127704 1.1581496 1.1539536 0 0 0-0.229193-0.02855z" opacity=".2"/>
 <path d="m21.185177 19.000314a1.1581496 1.1539536 0 0 0-1.185176 1.15534v7.690752a1.1581496 1.1539536 0 0 0 1.737051 0.999093l3.342918-1.921561 3.34141-1.924567a1.1581496 1.1539536 0 0 0 0-1.998183l-3.342918-1.923064-3.34141-1.921561a1.1581496 1.1539536 0 0 0-0.322682-0.127704 1.1581496 1.1539536 0 0 0-0.229193-0.02855z" fill="#fff"/>
</svg>

<svg xmlns="http://www.w3.org/2000/svg" width="48" height="48" version="1">
 <rect style="fill:#e4e4e4" width="40" height="40" x="4" y="4" rx="20" ry="20"/>
 <path style="opacity:0.2" d="M 10.216797,9.5097656 C 9.9748815,9.7398686 9.7398686,9.9748815 9.5097656,10.216797 L 23.292969,24 9.5097656,37.783203 c 0.230103,0.241915 0.4651159,0.476928 0.7070314,0.707031 L 24,24.707031 37.783203,38.490234 c 0.241915,-0.230103 0.476928,-0.465116 0.707031,-0.707031 L 24.707031,24 38.490234,10.216797 C 38.260131,9.9748815 38.025118,9.7398686 37.783203,9.5097656 L 24,23.292969 10.216797,9.5097656 Z"/>
 <path style="opacity:0.2;fill:#ffffff" d="M 24,4 C 12.921,4 4.002,12.92 4.002,24 c 0,0.16772 -0.004,0.33329 0,0.5 C 4.2662,13.654 13.089,5 24,5 c 10.911,0 19.734,8.6536 19.998,19.5 0.004,-0.16671 0,-0.33228 0,-0.5 C 43.998,12.92 35.079,4 24,4 Z"/>
 <path style="opacity:0.2" d="M 4.0117,24.5 C 4.0076,24.667 4,24.832 4,25 4,36.08 12.92,45 24,45 35.08,45 44,36.08 44,25 44,24.832 43.992,24.667 43.988,24.5 43.724,35.346 34.912,44 24,44 13.088,44 4.276,35.346 4.012,24.5 Z"/>
 <path style="opacity:0.6" d="m 22,6 c -0.554,0 -1,0.3825647 -1,0.8574219 l 0,4.2851561 C 21,11.617435 21.446,12 22,12 c 0.554,0 1,-0.382565 1,-0.857422 L 23,6.8574219 C 23,6.3825647 22.554,6 22,6 Z m 4,0 c -0.554,0 -1,0.3825647 -1,0.8574219 l 0,4.2851561 C 25,11.617435 25.446,12 26,12 c 0.554,0 1,-0.382565 1,-0.857422 L 27,6.8574219 C 27,6.3825647 26.554,6 26,6 Z M 9.4941406,21 c -0.08249,0.0031 -0.1630761,0.03403 -0.234375,0.08984 L 7.7519531,22.257808 6.2460938,23.42773 c -0.3279634,0.255208 -0.3279632,0.891277 0,1.146485 l 1.5058593,1.169922 1.5078125,1.167968 C 9.588803,27.167884 10.000469,26.848533 10,26.337891 l 0,-0.402344 1.259766,0.976562 C 11.588804,27.167884 12.000469,26.848535 12,26.337891 l 0,-4.675782 C 11.999932,21.289634 11.771348,20.990443 11.494141,21 c -0.08249,0.0031 -0.163076,0.03403 -0.234375,0.08984 L 10,22.066406 10,21.662109 C 9.9999327,21.289634 9.7713473,20.990443 9.4941406,21 Z M 36.505859,21 C 36.228652,20.990443 36.000068,21.289634 36,21.662109 l 0,4.675782 c -4.69e-4,0.510648 0.411196,0.829993 0.740234,0.574218 L 38,25.935547 l 0,0.402344 c -4.69e-4,0.510644 0.411196,0.829997 0.740234,0.574218 l 1.507813,-1.167968 1.505859,-1.169922 c 0.327963,-0.255208 0.327963,-0.891277 0,-1.146485 L 40.248047,22.257812 38.740234,21.089844 C 38.668935,21.034034 38.588349,21.0031 38.505859,21 38.228652,20.990443 38.000068,21.289638 38,21.662109 l 0,0.404297 -1.259766,-0.976562 C 36.668935,21.034034 36.588349,21.0031 36.505859,21 Z M 22,36 c -0.554,0 -1,0.382565 -1,0.857422 l 0,4.285156 C 21,41.617435 21.446,42 22,42 l 4,0 c 0.554,0 1,-0.382565 1,-0.857422 l 0,-4.285156 C 27,36.382565 26.554,36 26,36 l -4,0 z"/>
 <circle style="fill:#0086f2" cx="24" cy="24" r="10"/>
 <path style="opacity:0.2" d="m 21.185177,20.000314 a 1.1581496,1.1539536 0 0 0 -1.185176,1.15534 l 0,3.844625 0,3.846127 a 1.1581496,1.1539536 0 0 0 1.737051,0.999093 l 3.342918,-1.921561 3.34141,-1.924567 a 1.1581496,1.1539536 0 0 0 0,-1.998183 l -3.342918,-1.923064 -3.34141,-1.921561 a 1.1581496,1.1539536 0 0 0 -0.322682,-0.127704 1.1581496,1.1539536 0 0 0 -0.229193,-0.02855 z"/>
 <path style="fill:#ffffff" d="m 21.185177,19.000314 a 1.1581496,1.1539536 0 0 0 -1.185176,1.15534 l 0,3.844625 0,3.846127 a 1.1581496,1.1539536 0 0 0 1.737051,0.999093 l 3.342918,-1.921561 3.34141,-1.924567 a 1.1581496,1.1539536 0 0 0 0,-1.998183 l -3.342918,-1.923064 -3.34141,-1.921561 a 1.1581496,1.1539536 0 0 0 -0.322682,-0.127704 1.1581496,1.1539536 0 0 0 -0.229193,-0.02855 z"/>
</svg>
